X:725
T: James Gannon's Slide
T: Port Sh\'eamais Mhig Fhionn\'ain
S: B.Breathnach:"Ceol Rince na hEireann" IV/73
Z: B.Black
L: 1/8
M: 12/8
Q: 360
R: jig
K: D
B|A2F ABc d2c BcB|A2F A2F E3 E3|
A2F ABc d2c BcB|A2F E2F D3 D2 :|
e|f2B BAB A2F FGF|d2B BAB e3 f2e|
f2B BAB A2F A2B|A2F E2F D3 D2 :|
